!!!COM: Villani, Gabriele
!!!CDT:
!!!PTL: Il secondo libro delle toscanelle a quattro voci
!!!PPP: Venice
!!!PPR: Angelo Gardano
!!!PDT: 1591
!!!PUB-format:
!!!RISM: V 1550
!!!rime: 139
!!!OTL: Messaggera de l'alba
!!!AGN: Madrigal
!!!SCT: Trm0139a
!!!SCA: Trm0139a
!!!original-voices: 4
!!!extant-voices: 4
!!!complete: Y
!!!final: D
**kern	**text	**kern	**text	**kern	**text	**kern	**text
*part4	*part4	*part3	*part3	*part2	*part2	*part1	*part1
*staff4	*staff4	*staff3	*staff3	*staff2	*staff2	*staff1	*staff1
*I"Basso	*	*I"Tenore	*	*I"Alti	*	*I"Canto	*
*I'B	*	*I'T	*	*I'Alti	*	*I'C	*
*oclefC4	*	*oclefC3	*	*oclefC1	*	*oclefC1	*
*clefGv2	*	*clefG2	*	*clefG2	*	*clefG2	*
*k[b-]	*	*k[b-]	*	*k[b-]	*	*k[b-]	*
*F:	*	*F:	*	*F:	*	*F:	*
*omet(C)	*	*omet(C)	*	*omet(C)	*	*omet(C)	*
*M2/2	*	*M2/2	*	*M2/2	*	*M2/2	*
=1	=1	=1	=1	=1	=1	=1	=1
1r	.	2r	.	4d	Mes-	1r	.
.	.	.	.	4d	-sag-	.	.
.	.	4d	Mes-	8fL	-gie-	.	.
.	.	.	.	8g	.	.	.
.	.	4d	-sag-	8a	.	.	.
.	.	.	.	8b-yJ	.	.	.
=2	=2	=2	=2	=2	=2	=2	=2
1r	.	4c	-gie-	4cc	.	2r	.
.	.	8d	-ra	8a	-ra	.	.
.	.	8B-y	de	8dd	de	.	.
.	.	2A	l'al-	2cc#X	l'al-	4a	Mes-
.	.	.	.	.	.	4a	-sag-
=3	=3	=3	=3	=3	=3	=3	=3
4d	Mes-	4d	-ba,	2dd	-ba,	8fL	-gie-
.	.	.	.	.	.	8g	.
4d	-sag-	8f	Mes-	.	.	8a	.
.	.	8f	-sag-	.	.	8b-yJ	.
4c	-gie-	4e	-gie-	4r	.	4cc	.
8d	-ra	8f	-ra	4d	de	8a	-ra
8B-y	de	8g	de	.	.	8dd	de
=4	=4	=4	=4	=4	=4	=4	=4
2A	l'al-	1a	l'al-	2e	l'al-	2cc#X	l'al-
[2D	-ba	.	.	2f#X	-ba	2dd	-ba
=5	=5	=5	=5	=5	=5	=5	=5
2D]	.	2a	-ba	4f#X	È	4a	È
.	.	.	.	4f#X	que-	4a	que-
2r	.	2r	.	8gL	-st'au-	8b-yL	-st'au-
.	.	.	.	8f#i	.	8a	.
.	.	.	.	8g	.	8b-y	.
.	.	.	.	8aJ	.	8ccJ	.
=6	=6	=6	=6	=6	=6	=6	=6
4G	È	4d	È	4b-y	.	4dd	.
4G	que-	4d	que-	8a	-ra	8cc	-ra
.	.	.	.	8g	ter-	8b-y	ter-
8dL	-st'au-	8fL	-st'au-	2f	-re-	[2a	-re-
8c	.	8e	.	.	.	.	.
8d	.	8f	.	.	.	.	.
8eJ	.	8gJ	.	.	.	.	.
=7	=7	=7	=7	=7	=7	=7	=7
4f	.	4a	.	2d	-na,	4a]	.
8e	-ra	4a	-ra,	.	.	8gL	.
8d	ter-	.	.	.	.	8fJ	.
2c#X	-re-	4A	È	4a	È	2e	.
.	.	4A	que-	4a	que-	.	.
=8	=8	=8	=8	=8	=8	=8	=8
2d	-na,	8B-yL	-st'au-	8fL	-st'au-	2d	-na,
.	.	8c	.	8e	.	.	.
.	.	8d	.	8f	.	.	.
.	.	8eJ	.	8gJ	.	.	.
2D	ter-	4f	.	4a	.	4a	È
.	.	8e	-ra	8gL	.	4a	que-
.	.	8d	ter-	8fJ	.	.	.
=9	=9	=9	=9	=9	=9	=9	=9
1A	-re-	4c#X	-re-	4e	-ra	4a	-st'au-
.	.	2d	.	4d	ter-	8g	-ra
.	.	.	.	.	.	8f	ter-
.	.	.	.	2a	-re-	2e	-re-
.	.	4c#X	.	.	.	.	.
=10	=10	=10	=10	=10	=10	=10	=10
[1D	-na,	1d	-na,	1a	-na,	1f#X	-na,
=11	=11	=11	=11	=11	=11	=11	=11
1D]	.	2r	.	4d	Mes-	1r	.
.	.	.	.	4d	-sag-	.	.
.	.	4d	Mes-	8fL	-gie-	.	.
.	.	.	.	8g	.	.	.
.	.	4d	-sag-	8a	.	.	.
.	.	.	.	8b-yJ	.	.	.
=12	=12	=12	=12	=12	=12	=12	=12
1r	.	4c	-gie-	4cc	.	2r	.
.	.	8d	-ra	8a	-ra	.	.
.	.	8B-y	de	8dd	de	.	.
.	.	2A	l'al-	2cc#X	l'al-	4a	Mes-
.	.	.	.	.	.	4a	-sag-
=13	=13	=13	=13	=13	=13	=13	=13
4d	Mes-	4d	-ba,	2dd	-ba,	8fL	-gie-
.	.	.	.	.	.	8g	.
4d	-sag-	8f	Mes-	.	.	8a	.
.	.	8f	-sag-	.	.	8b-yJ	.
4c	-gie-	4e	-gie-	4r	.	4cc	.
8d	-ra	8f	-ra	4d	de	8a	-ra
8B-y	de	8g	de	.	.	8dd	de
=14	=14	=14	=14	=14	=14	=14	=14
2A	l'al-	1a	l'al-	2e	l'al-	2cc#X	l'al-
[2D	-ba	.	.	2f#X	-ba	2dd	-ba
=15	=15	=15	=15	=15	=15	=15	=15
2D]	.	2a	-ba	4f#X	È	4a	È
.	.	.	.	4f#X	que-	4a	que-
2r	.	2r	.	8gL	-st'au-	8b-yL	-st'au-
.	.	.	.	8f#i	.	8a	.
.	.	.	.	8g	.	8b-y	.
.	.	.	.	8aJ	.	8ccJ	.
=16	=16	=16	=16	=16	=16	=16	=16
4G	È	4d	È	4b-y	.	4dd	.
4G	que-	4d	que-	8a	-ra	8cc	-ra
.	.	.	.	8g	ter-	8b-y	ter-
8dL	-st'au-	8fL	-st'au-	2f	-re-	[2a	-re-
8c	.	8e	.	.	.	.	.
8d	.	8f	.	.	.	.	.
8eJ	.	8gJ	.	.	.	.	.
=17	=17	=17	=17	=17	=17	=17	=17
4f	.	4a	.	2d	-na,	4a]	.
8e	-ra	4a	-ra,	.	.	8gL	.
8d	ter-	.	.	.	.	8fJ	.
2c#X	-re-	4A	È	4a	È	2e	.
.	.	4A	que-	4a	que-	.	.
=18	=18	=18	=18	=18	=18	=18	=18
2d	-na,	8B-yL	-st'au-	8fL	-st'au-	2d	-na,
.	.	8c	.	8e	.	.	.
.	.	8d	.	8f	.	.	.
.	.	8eJ	.	8gJ	.	.	.
2D	ter-	4f	.	4a	.	4a	È
.	.	8e	-ra	8gL	.	4a	que-
.	.	8d	ter-	8fJ	.	.	.
=19	=19	=19	=19	=19	=19	=19	=19
1A	-re-	4c#X	-re-	4e	-ra	4a	-st'au-
.	.	2d	.	4d	ter-	8g	-ra
.	.	.	.	.	.	8f	ter-
.	.	.	.	2a	-re-	2e	-re-
.	.	4c#X	.	.	.	.	.
=20	=20	=20	=20	=20	=20	=20	=20
1D	-na,	1d	-na,	2a	-na,	2f#X	-na,
.	.	.	.	4d	E	2r	.
.	.	.	.	[4f	tor-	.	.
=21	=21	=21	=21	=21	=21	=21	=21
4r	.	4r	.	8f]L	.	1r	.
.	.	.	.	8g	.	.	.
4d	tal-	4f	E	8a	.	.	.
.	.	.	.	8b-yJ	.	.	.
4c	-hor	8eL	tor-	4cc	.	.	.
.	.	8f	.	.	.	.	.
4c	se-	8g	.	4c	-bi-	.	.
.	.	8eJ	.	.	.	.	.
=22	=22	=22	=22	=22	=22	=22	=22
2B-y	-re-	4f	.	8dL	-da	2dd	tal
.	.	.	.	8e	.	.	.
.	.	4d	-bi-	8f	.	.	.
.	.	.	.	8gJ	.	.	.
2A	-na,	8eL	-da	4a	.	4cc	hor
.	.	8d	.	.	.	.	.
.	.	8e	.	4a	tal	4cc	se-
.	.	8fJ	.	.	.	.	.
=23	=23	=23	=23	=23	=23	=23	=23
4G	E	4g	.	2d	hor,	1b-y	-re-
4.B-y	tor-	4d	tal-	.	.	.	.
.	.	2f	-hor,	2dd	tal-	.	.
8cL	.	.	.	.	.	.	.
8d	.	.	.	.	.	.	.
8eJ	.	.	.	.	.	.	.
=24	=24	=24	=24	=24	=24	=24	=24
4f	.	4r	.	4cc	-hor	2a	-na,
4F	-bi-	4a	tal-	4cc	se-	.	.
8GL	-da	4g	-hor	2b-y	-re-	2r	.
8A	.	.	.	.	.	.	.
8B-y	.	4g	se-	.	.	.	.
8cJ	.	.	.	.	.	.	.
=25	=25	=25	=25	=25	=25	=25	=25
2d	.	1f	-re-	1a	-na,	4d	E
.	.	.	.	.	.	4.f	tor-
2D	tal-	.	.	.	.	.	.
.	.	.	.	.	.	8gL	.
.	.	.	.	.	.	8a	.
.	.	.	.	.	.	8b-yJ	.
=26	=26	=26	=26	=26	=26	=26	=26
2A	-hor,	2e	-na,	4r	.	4cc	.
.	.	.	.	4a	E	4c	-bi-
2r	.	4r	.	8fL	tor-	8dL	-da
.	.	.	.	8g	.	8e	.
.	.	4d	tal-	8a	.	8f	.
.	.	.	.	8b-yJ	.	8gJ	.
=27	=27	=27	=27	=27	=27	=27	=27
1r	.	4c	-hor	4cc	.	4a	.
.	.	4c	se-	4c	-bi-	4g	tal-
.	.	2B-y	-re-	8dL	-da	4b-y	-hor,
.	.	.	.	8e	.	.	.
.	.	.	.	8f	.	[4dd	tal-
.	.	.	.	8gJ	.	.	.
=28	=28	=28	=28	=28	=28	=28	=28
4D	E	4A	-na,	4a	.	4dd]	.
4.F	tor-	4A	E	4a	tal-	2cc	-hor
.	.	4.c	tor-	2a	-hor,	.	.
8GL	.	.	.	.	.	.	.
8A	.	.	.	.	.	4cc	se-
8B-yJ	.	8d	.	.	.	.	.
=29	=29	=29	=29	=29	=29	=29	=29
4c	.	8eL	.	4r	.	4.cc	-re-
.	.	8fJ	.	.	.	.	.
4C	-bi-	4g	.	4e	tal-	.	.
.	.	.	.	.	.	8b-y	.
8DL	-da	4f	-bi-	4d	-hor	2a	.
8E	.	.	.	.	.	.	.
8F	.	[4f	-da	4d	se-	.	.
8GJ	.	.	.	.	.	.	.
=30	=30	=30	=30	=30	=30	=30	=30
2A	.	4f]	.	8cL	-re-	2.a	-na,
.	.	.	.	8d	.	.	.
.	.	8eL	.	8e	.	.	.
.	.	8dJ	.	8fJ	.	.	.
2AA	tal-	4c#X	.	2e	.	.	.
.	.	4c#X	tal-	.	.	4a	E
=31	=31	=31	=31	=31	=31	=31	=31
4D	-hor,	4d	-hor,	2d	-na,	8fL	tor-
.	.	.	.	.	.	8g	.
4d	tal-	4f	E	.	.	8a	.
.	.	.	.	.	.	8b-yJ	.
4c	-hor	8eL	tor-	2r	.	4cc	.
.	.	8f	.	.	.	.	.
4c	se-	8g	.	.	.	4c	-bi-
.	.	8eJ	.	.	.	.	.
=32	=32	=32	=32	=32	=32	=32	=32
2B-y	-re-	4f	.	4r	.	8dL	-da
.	.	.	.	.	.	8e	.
.	.	4d	-bi-	4dd	tal-	8f	.
.	.	.	.	.	.	8gJ	.
2A	-na,	8eL	-da	4cc	-hor	4a	.
.	.	8d	.	.	.	.	.
.	.	8e	.	4cc	se-	4g	tal-
.	.	8fJ	.	.	.	.	.
=33	=33	=33	=33	=33	=33	=33	=33
2r	.	4g	.	2b-y	-re-	4g	-hor,
.	.	4d	tal-	.	.	4dd	tal-
4r	.	4f	-hor,	4a	-na,	4cc	-hor
4F	tal	4f	tal-	4a	tal-	4cc	se-
=34	=34	=34	=34	=34	=34	=34	=34
4G	hor	4d	-hor	4g	-hor	8b-yL	-re-
.	.	.	.	.	.	8cc	.
4G	se-	4d	se-	4g	se-	8dd	.
.	.	.	.	.	.	8b-yJ	.
2A	-re-	2c#X	-re-	2e	-re-	2a	.
=35	=35	=35	=35	=35	=35	=35	=35
1Dl	-na.	1dl	-na.	1f#Xl	-na.	1al	-na.
==	==	==	==	==	==	==	==
*-	*-	*-	*-	*-	*-	*-	*-
!!!system-decoration: [*]
!!!RDF**kern: i = editorial accidental
!!!RDF**kern: l = terminal long
!!!ENC: Emiliano Ricciardi
!!!END: 2019/01/30
!!!EED: Schleuse, Paul
!!!EEV: 2019/01/30
!!!YEC: Copyright 2018 Emiliano Ricciardi, All Rights Reserved
!!!ONB: Translated from MusicXML on 2019/01/30 and edited by Craig Stuart Sapp
!!@@BEGIN:	VERSEDATA
!!@SOLERTI:	139
!!@CATALOGNUM:	Trm0139
!!@LAST_MODIFIED: 2020/07/12
!!@TITLE:		Messaggera de l'alba
!!@GENRE:		madrigale
!!@MANUSRC:	C, V<sub>8</sub>
!!@PRINTSRC:	28, 48, 141, 166, 167, 169
!!@@BEGIN:	VERSES
!!@ABOUTIT:	Fa comparazione de la signora Laura a l'aura.
!!@ABOUTEN:	He compares the lady Laura to the breeze.
!!@EDITOR:	Solerti, Angelo
!!@EDITION_TITLE: Le Rime di Torquato Tasso
!!@EDITION_LOC:	Bologna
!!@EDITION_PUB:	Romagnoli-Dall’Acqua
!!@EDITION_DATE:  1898-1902
!!@EDITION_VOL:	2
!!@EDITION_PAGE:  222
!!@TRANSLATOR:	Emiliano Ricciardi and Amyrose McCue Gill
!!@VERSE:
!!	Messaggera de l'alba
!!	È quest'aura terrena
!!	E torbida talor, talor serena:
!!	Laura mia par celeste,
!!	Così bella io la veggio
!!	Dopo l'aurora in fresco e verde seggio:
!!	Di fior l'una riveste
!!	Il dilettoso aprile,
!!	L'altra fiorir fa l'amoroso stile.
!!@TVERSE:
!!	Messenger of the dawn
!!	Is this earth-borne breeze,
!!	And turbulent now, now calm:
!!	My Laura seems celestial,
!!	So beautiful I see her
!!	After the dawn upon a cool and green throne:
!!	Delightful April
!!	Adorns the one with flowers;
!!	The amorous style makes the other one flower.
!!@@END:		VERSES
!!@OTHER_CRIT_ED:   Torquato Tasso, <i>Rime d’amore (secondo il codice
!!		Chigiano L VIII 302)</i>, eds. Franco Gavazzeni and
!!		Vercingetorige Martignone, vol. 4 of <i>Edizione
!!		Nazionale delle opere di Torquato Tasso</i>
!!		(Alessandria: Edizioni Dell’Orso, 2004), 116.
!!@ATTRIBUTION_ABOUT:	Secure
!!		<br>
!!		Among other sources (see Literary Sources), this poem appears in the autograph Chigiano
!!		L.VIII.302 (Biblioteca Vaticana, Rome), compiled
!!		around 1584&ndash;85.
!!@DATING:
!!@DEDICATEE:	Peperara, Laura ?
!!@COMMENTARY:
!!@@END:		VERSEDATA
!!@@BEGIN:	SETTING
!!@CATALOGNUM:	Trm0139a
!!@RIMETITLE:	Messaggera de l'alba
!!@SOLERTI:	139
!!@COMPOSER:	Villani, Gabriele
!!@PRINCEPSTITLE:	Il secondo libro delle toscanelle a quattro voci
!!@PRINCEPSLOC:	Venetia
!!@NORMLOC:	Venice
!!@NORMPUB:	Angelo Gardano
!!@NORMPUBSHORT:	Gardano
!!@PRINCEPSPUB:	Gardano
!!@PRINCEPSYEAR:	1591
!!@PRINCEPSRISM:	V 1550
!!@REPRINTS:	
!!@OVOICES:	4
!!@EXTANTVOICES:	4
!!@PARTBOOKS:	
!!@EXTPARTBOOKS:	
!!@OCLEFS:	C1,C1,C3,C4
!!@OMENSURATION:	C
!!@OKEYSIG:	b-
!!@FINAL:	D
!!@TIMPEDITOR:	Schleuse, Paul
!!@NOTE:		
!!@@END:		SETTING
